X:29
T:Lo Fenno Prend Oun Az
M:C
L:1/8
N:Anim
N:La Bourre 4th edition 1929, page 43
Z:Steve Mansfield www.lesession.co.uk May 2012
K:C
G | c B A G c2 c G | c B A G c3 G |
c d e c e4 | (3 d e d c > B A2 (G2 | !fermata! G3) G c d e c |
e2 (3 d e d c > B A2 | (3 d e d A > B c4 |]

